X:1
T:Title
%%score { ( 1 3 ) | ( 2 4 5 ) }
L:1/8
M:4/4
K:F
V:1 treble nm="Grand Piano"
V:3 treble 
V:2 bass 
V:4 bass 
V:5 bass 
V:1
 z4 z2[Q:1/4=100] FG | A2 AA [CAc]2 [CFA][CFA] | [CGB]2 [CFA][CFA] [CEG]2 GA | B6 z2 | A6 z2 | %5
 A2 AA [CAc]2 [CFA][CFA] | [CGB]2 [CFA][CFA] [CEG]2 (3Bcd | c6[K:bass][K:treble] z2 | %8
[M:9/8] F8- F |[M:1/4] AA |[M:4/4] [GB]6 z2 | [FA]6 z2 | d2- [Fd-]2 [Fd]2 (3dcA | c6 z2 | %14
 [Ec]2 [EG][FA] [GB] [GB]2 [GB] | A2 F>G A2 cc | [Ec]2 [EG][FA] [GB] [GB]2 [GB] | %17
[M:7/8] A2 F>A [Ec]3 |[M:1/4] [Fc]>[Fc] |[M:4/4] d6 z2 | c6 z2 | F2 z2 z4 |[M:3/4] [A,F]6 |] %23
V:2
 z4 z2 [F,A,][F,B,F] | [F,CF]2 [F,CF][F,CF] F,2 F,F, | E,2 F,F, C,2[K:treble] EF | %3
 G6[K:bass][K:treble] z2 | F6[K:bass] z2 | [F,CF]2 [F,CF][F,CF] F,2 F,F, | %6
 E,2 F,F, C,2[K:treble] (3GAB | A6[K:bass] z2 |[M:9/8] z z z/ A,/- A,/ z/ z z z3 | %9
[M:1/4][K:treble] FF |[M:4/4][K:bass] C,2 C,2 C,2[K:treble] (3GFE | F,2 F,2 F,2 A,A, | B,6 z2 | %13
 [F,F]2 z2 z4 | [C,G,]2 [C,C][C,C] [C,C] [C,C]2 [C,C] | %15
 [F,CF]2 [F,A,]>[F,B,F] [F,CF]2 [F,A,F][F,A,F] | [C,G,]2 [C,C][C,C] [C,C] [C,C]2 [C,C] | %17
[M:7/8] [F,CF]2 [F,A,]>[F,F] [C,G,]3 |[M:1/4] [F,A,]>[F,A,] |[M:4/4] B,6 z2 | [F,F]2 z2 z4 | %21
 C,2 C,2 C,2 C,>C, |[M:3/4] F,6 |] %23
V:3
 x8 | x8 | x8 | z2 CC C2 cB | z2 CC C2 FG | x8 | x8 | z2[K:bass] F,A,[K:treble] C2 AG | %8
[M:9/8] z2 [G,B,]/C/- C/D/ C2- C3 |[M:1/4] x2 |[M:4/4] C2 C2 C2 (3BAG | C2 C2 C2 cc | F2 z2 z4 | %13
 z2 F2 F2 cc | x8 | x8 | x8 |[M:7/8] x7 |[M:1/4] x2 |[M:4/4] F2 F2 F2 (3dcA | z2 F2 F2 F>G | %21
 [CA]2- [CFA]2 [DEB]2 [CEA]>[B,EG] |[M:3/4] x6 |] %23
V:4
 x8 | x8 | x6[K:treble] x2 | z2[K:bass] C,C, C,2[K:treble] AG | z2[K:bass] F,F, F,2 [F,A,][F,B,F] | %5
 x8 | x6[K:treble] x2 | z2[K:bass] C,C, C,2 [CE][B,E] |[M:9/8] .A,3 z/4 B,3/4 [F,A,]2- [F,A,]3 | %9
[M:1/4][K:treble] x2 |[M:4/4][K:bass] x6[K:treble] x2 | x8 | B,,2 B,,2 B,,2 (3B,A,F, | %13
 A,2- [F,A,-]2 [F,A,]2 [F,A,F][F,A,F] | x8 | x8 | x8 |[M:7/8] x7 |[M:1/4] x2 | %19
[M:4/4] B,,2 B,,2 B,,2 (3B,A,F, | A,2- [F,A,-]2 [F,A,]2 A,>B, | x8 |[M:3/4] x6 |] %23
V:5
 x8 | x8 | x6[K:treble] x2 | x2[K:bass] x4[K:treble] x2 | x2[K:bass] x6 | x8 | x6[K:treble] x2 | %7
 x2[K:bass] x6 |[M:9/8] z2 F, .F,3 z3 |[M:1/4][K:treble] x2 |[M:4/4][K:bass] x6[K:treble] x2 | x8 | %12
 x8 | x8 | x8 | x8 | x8 |[M:7/8] x7 |[M:1/4] x2 |[M:4/4] x8 | x8 | x8 |[M:3/4] x6 |] %23

